X: 78
T: Allı Durnam Bizim Ele Varırsan
C: Hacı Taşan
O: Turkey
F: http://compmusic.upf.edu/node/140
N: tahir--turku--nimsofyan--alli_durnam--kirikkale-keskin
N: makam= tahir
N: form= turku
N: usul= nimsofyan = 2/4
M: 2/4
L: 1/16
K: C _2/4B ^3/4f  
Q: 1/4=168
%%MIDI tuningsystem comma53
d2ed ec2B  | c2dc dB2A  | A2c/B/A A2c3/2B/  | \
w:  ARANAĞME  |   |   | 
B3/2A/A2 AAA2  | 
w:   | 
A2AA A2A2  | d2ed ec2B  | c2dc dB2A  | A2c/B/A A2c3/2B/  | 
w:   |  ARANAĞME  |   |   | 
B3/2A/A2 AAA2  | A2AA A2A2  | z2fg a2c'/b/a  | \
w:   |   |  Al lı  dur nam   | 
a2b3/2a/ aa3  | 
w:  bi zim  *  e le   | 
a2c'/b/a ag/f/g/f/g  | z2fg a2c'/b/a  | \
w:  va rır *  *  san    |  Al lı  dur nam   | 
a2b3/2a/ aa3  | 
w:  bi zim  *  e le   | 
a2c'/b/a ag/f/g/f/g  | z2fg a2c'/b/a  | \
w:  va rır *  *  san    |  Şe ker  söy le   | 
a3/2g/af geed  | 
w:  kay *  mak  *  söy *  le   | 
ddgd d4  | z2dd/c/ dc2B  | c2dc dB2A  | \
w:  bal  *  söy *  le    |  Gü lüm  *  gü lüm   |  kı rıl dı  ko lum    | 
A2c/B/A AAc3/2B/  | 
w:  Tut mu yor  *  e lim   | 
B3/2A/AA AAA2  | A2AA A2A2  | d2ed ec2B  | \
w:  dur *  na lar_ ey    |  *  SAZ  |  Ah  gü lüm  gü lüm   | 
c2dc dB2A  | 
w:  yâr  gü lüm  gü lüm    | 
A2c/B/A AAc3/2B/  | B3/2A/AA AAA2  | \
w:  Kız  gü lüm  *  gü lüm   |  dur *  na lar_ ey    | 
A2AA A2A2  | z2fg aac'/b/a  | 
w:  *  SAZ  |  E ğer  bi zi   | 
aab3/2a/ aa3  | aac'/b/a ag/f/g/f/g  | \
w:  su al  *  *  e den   |  o lur *  *  *  sa    | 
z2fg aac'/b/a  | 
w:  E ğer  bi zi   | 
aab3/2a/ aa3  | aac'/b/a ag/f/g/f/g  | \
w:  su al  *  *  e den   |  o lur *  *  *  sa    | 
z2fg aac'/b/a  | 
w:  Boy nu  bü kük   | 
a3/2g/af geed  | d2g2 d4  | z2dd/c/ dc2B  | \
w:  ben *  zi  *  so luk   |  yâr  söy le    |  Gü lüm  *  gü lüm   | 
c2dc dB2A  | 
w:  kı rıl dı  ko lum    | 
A2c/B/A AAc3/2B/  | B3/2A/AA AAA2  | \
w:  Tut mu yor  *  e lim   |  dur *  na lar_ ey    | 
A2AA A2A2  | d2ed ec2B  | 
w:  *  SAZ  |  Ah  gü lüm  gü lüm   | 
c2dc dB2A  | A2c/B/A AAc3/2B/  | B3/2A/AA AAA2  | 
w:  yâr  gü lüm  gü lüm    |  Kız  gü lüm  *  gü lüm   |  dur *  na lar_ ey    | 
A2AA A2A2  | d2ed ec2B  | c2dc dB2A  | A2c/B/A A2c3/2B/  | 
w:  *  SAZ  |  ARANAĞME  |   |   | 
B3/2A/A2 AAA2  | A2AA A2A2  | d2ed ec2B  | \
w:   |   |  ARANAĞME  | 
c2dc dB2A  | 
w:   | 
A2c/B/A A2c3/2B/  | B3/2A/A2 AAA2  | \
w:   |   | 
A2AA A2A2  | z2fg a2c'/b/a  | 
w:   |  Al lı  dur nam   | 
a2b3/2a/ aa3  | a2c'/b/a ag/f/g/f/g  | \
w:  bi zim  *  e le   |  va rır *  *  san    | 
z2fg a2c'/b/a  | 
w:  Al lı  dur nam   | 
a2b3/2a/ aa3  | a2c'/b/a ag/f/g/f/g  | \
w:  bi zim  *  e le   |  va rır *  *  san    | 
z2fg a2c'/b/a  | 
w:  Şe ker  söy le   | 
a3/2g/af geed  | ddgd d4  | z2dd/c/ dc2B  | \
w:  kay *  mak  *  söy *  le   |  bal  *  söy *  le    |  Gü lüm  *  gü lüm   | 
c2dc dB2A  | 
w:  kı rıl dı  ko lum    | 
A2c/B/A AAc3/2B/  | B3/2A/AA AAA2  | \
w:  Tut mu yor  *  e lim   |  dur *  na lar_ ey    | 
A2AA A2A2  | d2ed ec2B  | 
w:  *  SAZ  |  Ah  gü lüm  gü lüm   | 
c2dc dB2A  | A2c/B/A AAc3/2B/  | B3/2A/AA AAA2  | 
w:  yâr  gü lüm  gü lüm    |  Kız  gü lüm  *  gü lüm   |  dur *  na lar_ ey    | 
A2AA A2A2  | z2fg aac'/b/a  | aab3/2a/ aa3  | \
w:  *  SAZ  |  E ğer  bi zi   |  su al  *  *  e den   | 
aac'/b/a ag/f/g/f/g  | 
w:  o lur *  *  *  sa    | 
z2fg aac'/b/a  | aab3/2a/ aa3  | aac'/b/a ag/f/g/f/g  | 
w:  E ğer  bi zi   |  su al  *  *  e den   |  o lur *  *  *  sa    | 
z2fg aac'/b/a  | a3/2g/af geed  | d2g2 d4  | \
w:  Boy nu  bü kük   |  ben *  zi  *  so luk   |  yâr  söy le    | 
z2dd/c/ dc2B  | 
w:  Gü lüm  *  gü lüm   | 
c2dc dB2A  | A2c/B/A AAc3/2B/  | B3/2A/AA AAA2  | 
w:  kı rıl dı  ko lum    |  Tut mu yor  *  e lim   |  dur *  na lar_ ey    | 
A2AA A2A2  | d2ed ec2B  | c2dc dB2A  | A2c/B/A AAc3/2B/  | 
w:  *  SAZ  |  Ah  gü lüm  gü lüm   |  yâr  gü lüm  gü lüm    |  Kız  gü lüm  *  gü lüm   | 
B3/2A/AA AAA2  | A2AA A2A2  | |


